!!!!SEGMENT: pl-cz--iii-451--006_maader-ludwik--missa-g-pleni-sunt.krn
!!!cenid: 18xx:966
!!!COM: Maader, Ludwik
!!!COM-rismid: pe30020328
!!!CDT: <1794->1798
!!!CNT:
!!!OPR: Missa G
!!!OTL: Pleni sunt
!!!OMV: 006
!!!PDT: 1815
!!!AGN: Sacred; Mass
!!!SMS-siglum: PL-CZ
!!!SMS-shelfmark: III-451
!!!SMS-shelfwork: 001-006 M
!!!SMS-variant:
!!!SMS-altvar:
!!!NIFC-rismid: 300000763
!!!URL-scan: http://repozytorium.nifc.pl/skany/pl-cz-nut--iii-451
!!!ONB-nifc: UWAGA: części Mszy: Kyrie, Gloria, Credo, Et incarnatus, Sanctus, Pleni sunt, Benedicuts, Agnus Dei
!!!OMD: Allo
!!!key: G
**kern	**kern	**text	**text	**dynam	**kern	**dynam	**kern	**dynam	**kern	**text	**kern	**text	**kern	**text	**kern	**kern	**kern	**dynam	**kern	**dynam
*part10	*part10	*part10	*part10	*part10	*part9	*part9	*part8	*part8	*part7	*part7	*part6	*part6	*part5	*part5	*part4	*part3	*part2	*part2	*part1	*part1
*staff11	*staff10	*staff10	*staff10	*	*staff9	*	*staff8	*	*staff7	*staff7	*staff6	*staff6	*staff5	*staff5	*staff4	*staff3	*staff2	*	*staff1	*
*I"ORGANO CONCERTANDO	*I"ORGANO CONCERTANDO	*	*	*	*I"Violino SECONDO	*	*I"Violino Primo	*	*I"BASSO	*	*I"CANTO SeCONDO	*	*I"CANTO Primo	*	*I"Cornu Secondo	*I"Cornu Primo in g	*I"flauto Secundo	*	*I"flauto Primo	*
*I'org conc (=bc)	*I'org conc (=bc)	*	*	*	*I'vl 2	*	*I'vl 1	*	*I'B	*	*I'S 2	*	*I'S 1	*	*I'cor 2	*I'cor 1	*I'fl 2	*	*I'fl 1	*
*Iorgan	*Iorgan	*	*	*	*Ivioln	*	*Ivioln	*	*Ibass	*	*Isoprn	*	*Isoprn	*	*Icor	*Icor	*Iflt	*	*Iflt	*
*ICklav	*ICklav	*	*	*	*ICstr	*	*ICstr	*	*ICvox	*	*ICvox	*	*ICvox	*	*ICbras	*ICbras	*ICww	*	*ICww	*
*clefF4	*clefG2	*	*	*	*clefG2	*	*clefG2	*	*clefF4	*	*clefC1	*	*clefC1	*	*clefG2	*clefG2	*clefG2	*	*clefG2	*
*ITrd-1c-2	*ITrd-1c-2	*	*	*	*	*	*	*	*	*	*	*	*	*	*ITrd3c5	*ITrd3c5	*	*	*	*
*k[f#]	*k[f#]	*	*	*	*k[f#]	*	*k[f#]	*	*k[f#]	*	*k[f#]	*	*k[f#]	*	*k[f#]	*k[f#]	*k[f#]	*	*k[f#]	*
*G:	*G:	*	*	*	*G:	*	*G:	*	*G:	*	*G:	*	*G:	*	*G:	*G:	*G:	*	*G:	*
*M2/4	*M2/4	*	*	*	*M2/4	*	*M2/4	*	*M2/4	*	*M2/4	*	*M2/4	*	*M2/4	*M2/4	*M2/4	*	*M2/4	*
*all\right	*all\right	*	*	*	*all\right	*	*all\right	*	*all\right	*	*all\right	*	*all\right	*	*	*	*all\right	*	*all\right	*
!	!LO:TX:a:t=Allo:color=red	!	!	!	!LO:TX:a:t=Allo:color=red	!	!	!	!	!	!	!	!LO:TX:a:t=Allo:color=red	!	!	!	!	!	!	!
!	!	!	!	!	!LO:TX:t=Tutti	!	!	!	!LO:TX:a:t=Allo:color=red	!	!	!	!	!	!	!	!LO:TX:a:t=Allo:color=red	!	!LO:TX:a:t=Allo:color=red	!
!	!LO:N:vis=8	!	!	!LO:DY:a:t=forte	!LO:TX:b:t=Pleni:color=red	!	!LO:TX:a:t=Allo:color=red	!	!	!	!LO:TX:a:t=Allo:color=red	!	!	!	!LO:TX:a:t=Allo:color=red	!LO:TX:a:t=Allo:color=red	!	!	!	!
8r	16b/LL 16dd	Ple-	.	f	16b/LL	.	16dd|>\LL	.	8r	.	(16b\LL	Ple-	16dd\LL	Ple-	8r	8r	8r	.	8r	.
!	!LO:N:vis=8	!	!	!	!	!	!	!	!	!	!	!	!	!	!	!	!	!	!	!
.	16a/JJ 16cc	.	.	.	16a/JJ	.	16cc|>\JJ	.	.	.	16a\JJ)	.	16cc\JJ	.	.	.	.	.	.	.
=1	=1	=1	=1	=1	=1	=1	=1	=1	=1	=1	=1	=1	=1	=1	=1	=1	=1	=1	=1	=1
*	*	*	*	*	*	*	*	*	*	*	*	*	*	*	*2\right	*2\right	*	*	*	*
!	!	!	!	!	!	!	!	!LO:DY:a:t=forte	!	!	!	!	!	!	!	!	!	!LO:DY:a:t=forte	!	!LO:DY:a:t=for
2r	8g/ 8b	-ni	.	.	8g/L	.	8b|>\L	f	0r	.	8g\	-ni	8b\	-ni	2g\	2b\	8gg\L	f	8bb|>\L	f
.	8g/ 8b	sunt	.	.	8g/	.	8b|>\	.	.	.	8g\	sunt	8b\	sunt	.	.	8gg\	.	8bb|>\	.
!	!LO:SIC:l:s=cae	!	!	!	!	!	!	!	!	!	!LO:SIC:l:s=cae	!	!LO:SIC:l:s=cae	!	!	!	!	!	!	!
.	8cc/L 8ee	ce-	.	.	8cc/	.	8ee\	.	.	.	(8cc\L	Ce-	8ee\	Ce-	.	.	(8ccc\	.	(8eee\	.
.	8b/J 8dd	.	.	.	8b/J	.	8dd\J	.	.	.	8b\J)	.	8dd\	.	.	.	8bb\J)	.	8ddd\J)	.
=2	=2	=2	=2	=2	=2	=2	=2	=2	=2	=2	=2	=2	=2	=2	=2	=2	=2	=2	=2	=2
8r	4a/ 4cc	-li	.	.	4a/	.	4cc\	.	.	.	4a\	-li	4cc\	-li	8r	8r	4aa\	.	4ccc\	.
!LO:TX:t=P:problem=mixed beam	!	!	!	!	!	!	!	!	!	!	!	!	!	!	!	!	!	!	!	!
8d\L	.	.	.	.	.	.	.	.	.	.	.	.	.	.	8a\L	8cc\L	.	.	.	.
8D/J	8r	.	.	.	8r	.	8r	.	.	.	8r	.	8r	.	8a\J	8cc\J	4r	.	4r	.
!	!LO:SIC:l:s=cae	!	!	!	!	!	!	!	!	!	!	!	!LO:SIC:l:s=cae	!	!	!	!	!	!	!
8r	16a/LL 16cc	ce-	.	.	16a/LL	.	16cc\LL	.	.	.	(16a\LL	glo-	(16cc\LL	Ce-	8r	8r	.	.	.	.
.	16g/JJ 16b	.	.	.	16g/JJ	.	16b\JJ	.	.	.	16g\JJ)	.	16b\JJ)	.	.	.	.	.	.	.
=3	=3	=3	=3	=3	=3	=3	=3	=3	=3	=3	=3	=3	=3	=3	=3	=3	=3	=3	=3	=3
!	!	!	!	!	!	!	!LO:TX:t=P:problem=mixed beam	!	!	!	!	!	!	!	!	!	!	!	!	!
2r	8f#/ 8a	-li	.	.	8f#/L	.	8a|>/L	.	.	.	8f#\	-ri-	8a\	-li	2d/	2a\	8ff#|>\L	.	8aa|>\L	.
.	8f#/ 8a	et	.	.	8f#/	.	8a|>/	.	.	.	8f#\	-a	8a\	et	.	.	8ff#|>\	.	8aa|>\	.
.	8b/L 8dd	ter-	.	.	8b/	.	8dd\	.	.	.	(8b\L	tu-	8dd\	ter-	.	.	(8bb\	.	(8ddd\	.
.	8a/J 8cc	.	.	.	8a/J	.	8cc\J	.	.	.	8a\J)	.	8cc\	.	.	.	8aa\J)	.	8ccc\J)	.
=4	=4	=4	=4	=4	=4	=4	=4	=4	=4	=4	=4	=4	=4	=4	=4	=4	=4	=4	=4	=4
8r	4g/ 4b	-ra	.	.	4g/	.	4b\	.	.	.	4g\	-a	4b\	-ra	8r	8r	4gg\	.	4bb\	.
!LO:TX:t=P:problem=mixed beam	!	!	!	!	!	!	!	!	!	!	!	!	!	!	!	!	!	!	!	!
8G\L	.	.	.	.	.	.	.	.	.	.	.	.	.	.	8g\L	8b\L	.	.	.	.
8GG/J	8r	.	.	.	8r	.	8r	.	.	.	8r	.	8r	.	8g\J	8b\J	8r	.	8r	.
8r	8b/ 8dd	glo-	.	.	8b/	.	8dd\	.	.	.	8b\	glo-	8dd\	glo-	8r	8r	8bb\	.	8ddd\	.
!	!	!	!	!	!	!	!	!	!	!	!LO:LB:g=original	!	!	!	!	!	!	!	!	!
=5	=5	=5	=5	=5	=5	=5	=5	=5	=5	=5	=5	=5	=5	=5	=5	=5	=5	=5	=5	=5
*	*^	*	*	*	*	*	*	*	*	*	*	*	*	*	*	*	*	*	*	*
*	*	*	*	*	*	*	*	*	*	*	*	*	*	*	*	*	*	*2\right	*	*2\right	*
8r	4ee/	4cc\	.	.	.	8cc\L	.	8ee|>\L	.	1r	.	8a\	-ri-	8ee\	-ri-	8r	8r	2ccc\	.	2eee\	.
!LO:TX:t=P:problem=mixed beam	!	!	!	!	!	!	!	!	!	!	!	!	!	!	!	!	!	!	!	!	!
8c\L	.	.	.	.	.	8cc\J	.	8ee|>\J	.	.	.	8a\	-a	8ee\	-a	8G/L	8g\L	.	.	.	.
8C/J	8r	8ryy	.	.	.	8r	.	8r	.	.	.	8r	.	8r	.	8G/J	8g\J	.	.	.	.
!	!	!	!	!	!	!	!	!LO:N:vis=4	!	!	!	!	!	!	!	!	!	!	!	!	!
8r	8ee/	8cc\	.	.	.	8cc\	.	8ee\	.	.	.	8a\	glo-	8ee\	glo-	8r	8r	.	.	.	.
!LO:LB:g=original	!LO:LB:g=original	!	!	!	!	!	!	!	!	!	!	!	!	!	!	!	!	!	!	!	!
=6	=6	=6	=6	=6	=6	=6	=6	=6	=6	=6	=6	=6	=6	=6	=6	=6	=6	=6	=6	=6	=6
8r	4cc/ 4ff#	4a\	-ri-	.	.	8a/L	.	8ff#|>\L	.	.	.	8cc\	-ri-	8ff#\	-ri-	8r	8r	2ccc\	.	2fff#\	.
!LO:TX:t=P:problem=mixed beam	!	!	!	!	!	!	!	!	!	!	!	!	!	!	!	!	!	!	!	!	!
8d\L	.	.	.	.	.	8a/J	.	8ff#|>\J	.	.	.	8cc\	-a	8ff#\	-a	8d/L	8a\L	.	.	.	.
8D/	8r	8ryy	.	.	.	8r	.	8r	.	.	.	8r	.	8r	.	8d/J	8a\J	.	.	.	.
!	!	!	!	!	!	!LO:N:vis=4	!	!LO:N:vis=4	!	!	!	!	!	!	!	!	!	!	!	!	!
8d\J	8cc/ 8ff#	8a\ 8cc	-a	.	.	8a/	.	8ff#\	.	.	.	8cc\	glo-	8ff#\	glo-	8r	8r	.	.	.	.
!	!	!	!	!	!	!LO:LB:g=original	!	!	!	!	!	!	!	!LO:LB:g=original	!	!	!	!	!	!	!
=7	=7	=7	=7	=7	=7	=7	=7	=7	=7	=7	=7	=7	=7	=7	=7	=7	=7	=7	=7	=7	=7
4G\	4b/ 4gg	4b\	tu-	.	.	4b\	.	4gg|>\	.	(4G\	tu-	8b\	-ri-	8gg\	-ri-	4g\	4b\	4bb\	.	4ggg\	.
.	.	.	.	.	.	.	.	.	.	.	.	8b\	-a	8gg\	-a	.	.	.	.	.	.
4D/	4aa\	4cc\	.	.	.	4cc\	.	4aa|>\	.	4D\)	.	4cc\	tu-	4aa\	tu-	4d\	4a\	4aa\	.	4aaa\	.
*	*v	*v	*	*	*	*	*	*	*	*	*	*	*	*	*	*	*	*	*	*	*
=8	=8	=8	=8	=8	=8	=8	=8	=8	=8	=8	=8	=8	=8	=8	=8	=8	=8	=8	=8	=8
!	!	!	!	!	!	!	!LO:TX:t=P:4\left:problem	!	!	!	!	!	!	!	!	!	!	!	!	!
4G\	4b\ 4gg	-a	.	.	4b\	.	4gg|>\	.	4G\	-a	4b\	-a	4gg\	-a	4G/	4g\	4bb\	.	4ggg\	.
4r	4r	.	.	.	4r	.	4r	.	4r	.	4r	.	4r	.	4r	4r	4r	.	4r	.
!	!	!	!	!	!	!	!	!	!	!	!	!	!	!	!	!	!LO:LB:g=original	!	!LO:LB:g=original	!
=9	=9	=9	=9	=9	=9	=9	=9	=9	=9	=9	=9	=9	=9	=9	=9	=9	=9	=9	=9	=9
*clefG2	*	*	*	*	*	*	*	*	*	*	*	*	*	*	*	*	*	*	*	*
*^	*	*	*	*	*	*	*	*	*	*	*	*	*	*	*	*	*	*	*	*
*	*2\right	*	*	*	*	*	*	*2\right	*	*	*	*	*	*	*	*	*	*	*	*	*
*tremolo	*tremolo	*	*	*	*	*tremolo	*	*tremolo	*	*	*	*	*	*	*	*	*	*	*	*	*
!	!	!LO:TX:a:t=Solo	!	!	!	!	!LO:DY:b:t=po	!LO:TX:t=||||	!	!LO:TX:a:t=26	!	!LO:TX:a:t=22	!	!LO:TX:a:t=22	!	!LO:TX:a:t=23	!LO:TX:a:t=23	!LO:TX:a:t=8	!	!LO:TX:a:t=8	!
!	!	!	!	!	!LO:DY:b:t=Piano	!	!	!	!	!	!	!	!	!	!	!LO:TX:b:t=23	!LO:TX:b:t=23	!	!	!	!
8a/L	8d\ 8f#L	(16cc\LL	.	.	p	8f#/L	p	8cc\L	p	2r	.	0r	.	2r	.	0r	0r	0r	.	0r	.
.	.	16dd\	.	.	.	.	.	.	.	.	.	.	.	.	.	.	.	.	.	.	.
8a/	8d\ 8f#	16cc\	.	.	.	8f#/	.	8cc\	.	.	.	.	.	.	.	.	.	.	.	.	.
.	.	16dd\JJ)	.	.	.	.	.	.	.	.	.	.	.	.	.	.	.	.	.	.	.
8a/	8d\ 8f#	(16cc\LL	.	.	.	8f#/	.	8cc\	.	.	.	.	.	.	.	.	.	.	.	.	.
.	.	16dd\	.	.	.	.	.	.	.	.	.	.	.	.	.	.	.	.	.	.	.
8a/J	8d\ 8f#J	16cc\	.	.	.	8f#/J	.	8cc\J	.	.	.	.	.	.	.	.	.	.	.	.	.
.	.	16dd\JJ)	.	.	.	.	.	.	.	.	.	.	.	.	.	.	.	.	.	.	.
*	*	*	*	*	*	*Xtremolo	*	*Xtremolo	*	*	*	*	*	*	*	*	*	*	*	*	*
=10	=10	=10	=10	=10	=10	=10	=10	=10	=10	=10	=10	=10	=10	=10	=10	=10	=10	=10	=10	=10	=10
*	*	*^	*	*	*	*	*	*	*	*	*	*	*	*	*	*	*	*	*	*	*
*	*	*	*2\right	*	*	*	*	*	*	*	*	*	*	*	*	*	*	*	*	*	*	*
8g/L	8d\L	8b\L	2b\	.	.	.	4g/	.	4b|>\	.	2r	.	.	.	2r	.	.	.	.	.	.	.
8g/	8d\	8dd\	.	.	.	.	.	.	.	.	.	.	.	.	.	.	.	.	.	.	.	.
8g/	8d\	8gg\	.	.	.	.	4r	.	4r	.	.	.	.	.	.	.	.	.	.	.	.	.
8g/J	8d\J	8dd\J	.	.	.	.	.	.	.	.	.	.	.	.	.	.	.	.	.	.	.	.
*	*	*v	*v	*	*	*	*	*	*	*	*	*	*	*	*	*	*	*	*	*	*	*
=11	=11	=11	=11	=11	=11	=11	=11	=11	=11	=11	=11	=11	=11	=11	=11	=11	=11	=11	=11	=11	=11
*	*	*	*	*	*	*tremolo	*	*tremolo	*	*	*	*	*	*	*	*	*	*	*	*	*
8f#/ 8aL	8d\L	(16cc\LL	.	.	.	8f#/L	.	8cc\L	.	2r	.	.	.	2r	.	.	.	.	.	.	.
.	.	16dd\	.	.	.	.	.	.	.	.	.	.	.	.	.	.	.	.	.	.	.
8f#/ 8a	8d\	16cc\	.	.	.	8f#/	.	8cc\	.	.	.	.	.	.	.	.	.	.	.	.	.
.	.	16dd\JJ)	.	.	.	.	.	.	.	.	.	.	.	.	.	.	.	.	.	.	.
8f#/ 8a	8d\	(16cc\LL	.	.	.	8f#/	.	8cc\	.	.	.	.	.	.	.	.	.	.	.	.	.
.	.	16dd\	.	.	.	.	.	.	.	.	.	.	.	.	.	.	.	.	.	.	.
8f#/ 8aJ	8d\J	16cc\	.	.	.	8f#/J	.	8cc\J	.	.	.	.	.	.	.	.	.	.	.	.	.
.	.	16dd\JJ)	.	.	.	.	.	.	.	.	.	.	.	.	.	.	.	.	.	.	.
*	*	*	*	*	*	*Xtremolo	*	*Xtremolo	*	*	*	*	*	*	*	*	*	*	*	*	*
=12	=12	=12	=12	=12	=12	=12	=12	=12	=12	=12	=12	=12	=12	=12	=12	=12	=12	=12	=12	=12	=12
*	*	*^	*	*	*	*	*	*	*	*	*	*	*	*	*	*	*	*	*	*	*
8g/L	8d\L	8b|>/L	2b\	.	.	.	4g/	.	4b\	.	2r	.	.	.	2r	.	.	.	.	.	.	.
8g/	8d\	8dd|>/J	.	.	.	.	.	.	.	.	.	.	.	.	.	.	.	.	.	.	.	.
8g/	8d\	4gg/	.	.	.	.	4r	.	4r	.	.	.	.	.	.	.	.	.	.	.	.	.
8g/J	8d\J	.	.	.	.	.	.	.	.	.	.	.	.	.	.	.	.	.	.	.	.	.
*	*	*v	*v	*	*	*	*	*	*	*	*	*	*	*	*	*	*	*	*	*	*	*
!	!	!	!	!	!	!	!	!LO:LB:g=original	!	!	!	!	!	!	!	!	!	!	!	!	!
=13	=13	=13	=13	=13	=13	=13	=13	=13	=13	=13	=13	=13	=13	=13	=13	=13	=13	=13	=13	=13	=13
*	*	*	*	*	*	*tremolo	*	*tremolo	*	*	*	*	*	*	*	*	*	*	*	*	*
!	!	!	!	!	!	!LO:N:vis=4	!	!	!	!	!	!	!	!	!	!	!	!	!	!	!
8a/L	8d\ 8f#L	(16cc\LL	.	.	.	8f#/L	.	8cc\L	.	2r	.	0r	.	2r	.	0r	0r	0r	.	0r	.
.	.	16dd\	.	.	.	.	.	.	.	.	.	.	.	.	.	.	.	.	.	.	.
8a/	8d\ 8f#	16cc\	.	.	.	8f#/	.	8cc\	.	.	.	.	.	.	.	.	.	.	.	.	.
.	.	16dd\JJ)	.	.	.	.	.	.	.	.	.	.	.	.	.	.	.	.	.	.	.
8a/	8d\ 8f#	(16cc\LL	.	.	.	8f#/	.	8cc\	.	.	.	.	.	.	.	.	.	.	.	.	.
.	.	16dd\	.	.	.	.	.	.	.	.	.	.	.	.	.	.	.	.	.	.	.
8a/J	8d\ 8f#J	16cc\	.	.	.	8f#/J	.	8cc\J	.	.	.	.	.	.	.	.	.	.	.	.	.
.	.	16dd\JJ)	.	.	.	.	.	.	.	.	.	.	.	.	.	.	.	.	.	.	.
*	*	*	*	*	*	*Xtremolo	*	*Xtremolo	*	*	*	*	*	*	*	*	*	*	*	*	*
!LO:LB:g=original	!LO:LB:g=original	!LO:LB:g=original	!	!	!	!	!	!	!	!	!	!	!	!	!	!	!	!	!	!	!
=14	=14	=14	=14	=14	=14	=14	=14	=14	=14	=14	=14	=14	=14	=14	=14	=14	=14	=14	=14	=14	=14
*	*	*^	*	*	*	*	*	*	*	*	*	*	*	*	*	*	*	*	*	*	*
8g/L	8d\L	8b|>/L	2b\	.	.	.	4g/	.	4b\	.	2r	.	.	.	2r	.	.	.	.	.	.	.
8g/	8d\	8dd|>/	.	.	.	.	.	.	.	.	.	.	.	.	.	.	.	.	.	.	.	.
8g/	8d\	8gg|>/	.	.	.	.	4r	.	4r	.	.	.	.	.	.	.	.	.	.	.	.	.
8g/J	8d\J	8dd|>/J	.	.	.	.	.	.	.	.	.	.	.	.	.	.	.	.	.	.	.	.
*	*	*v	*v	*	*	*	*	*	*	*	*	*	*	*	*	*	*	*	*	*	*	*
=15	=15	=15	=15	=15	=15	=15	=15	=15	=15	=15	=15	=15	=15	=15	=15	=15	=15	=15	=15	=15	=15
*	*	*	*	*	*	*tremolo	*	*tremolo	*	*	*	*	*	*	*	*	*	*	*	*	*
8a/L	8d\ 8f#L	(16cc\LL	.	.	.	8f#/L	.	8cc\L	.	2r	.	.	.	2r	.	.	.	.	.	.	.
.	.	16dd\	.	.	.	.	.	.	.	.	.	.	.	.	.	.	.	.	.	.	.
8a/	8d\ 8f#	16cc\	.	.	.	8f#/	.	8cc\	.	.	.	.	.	.	.	.	.	.	.	.	.
.	.	16dd\JJ)	.	.	.	.	.	.	.	.	.	.	.	.	.	.	.	.	.	.	.
8a/	8d\ 8f#	(16cc\LL	.	.	.	8f#/	.	8cc\	.	.	.	.	.	.	.	.	.	.	.	.	.
.	.	16dd\	.	.	.	.	.	.	.	.	.	.	.	.	.	.	.	.	.	.	.
8a/J	8d\ 8f#J	16cc\	.	.	.	8f#/J	.	8cc\J	.	.	.	.	.	.	.	.	.	.	.	.	.
.	.	16dd\JJ)	.	.	.	.	.	.	.	.	.	.	.	.	.	.	.	.	.	.	.
*	*	*	*	*	*	*Xtremolo	*	*Xtremolo	*	*	*	*	*	*	*	*	*	*	*	*	*
=16	=16	=16	=16	=16	=16	=16	=16	=16	=16	=16	=16	=16	=16	=16	=16	=16	=16	=16	=16	=16	=16
*	*	*^	*	*	*	*	*	*	*	*	*	*	*	*	*	*	*	*	*	*	*
*	*tremolo	*	*	*	*	*	*	*	*	*	*	*	*	*	*	*	*	*	*	*	*	*
8g/L	8d\L	8b|>/L	2b\	.	.	.	4g/	.	4b\	.	2r	.	.	.	2r	.	.	.	.	.	.	.
8g/	8d\	8dd|>/J	.	.	.	.	.	.	.	.	.	.	.	.	.	.	.	.	.	.	.	.
8g/	8d\	4gg/	.	.	.	.	4r	.	4r	.	.	.	.	.	.	.	.	.	.	.	.	.
8g/J	8d\J	.	.	.	.	.	.	.	.	.	.	.	.	.	.	.	.	.	.	.	.	.
*Xtremolo	*Xtremolo	*	*	*	*	*	*	*	*	*	*	*	*	*	*	*	*	*	*	*	*	*
*v	*v	*	*	*	*	*	*	*	*	*	*	*	*	*	*	*	*	*	*	*	*	*
*	*v	*v	*	*	*	*	*	*	*	*	*	*	*	*	*	*	*	*	*	*	*
=17	=17	=17	=17	=17	=17	=17	=17	=17	=17	=17	=17	=17	=17	=17	=17	=17	=17	=17	=17	=17
*Xtuplet	*	*	*	*	*	*	*	*	*	*	*	*	*	*	*	*	*	*	*	*
!	!LO:TUP:a:global:problem=klamra łukowa	!	!	!	!	!LO:DY:a	!	!LO:DY:a:t=Piano	!	!	!	!	!	!	!	!	!	!LO:DY:a:t=Piano	!	!LO:DY:a:t=Pia
12d/L	12ccc\L	.	.	.	2f#/	.	2a/	p	2r	.	0r	.	2r	.	0r	0r	2ff#\	p	2aa\	p
12f#/	12aa\	.	.	.	.	.	.	.	.	.	.	.	.	.	.	.	.	.	.	.
12a/J	12dd\J	.	.	.	.	.	.	.	.	.	.	.	.	.	.	.	.	.	.	.
*rep	*	*	*	*	*	*	*	*	*	*	*	*	*	*	*	*	*	*	*	*
12d/L	12ccc\L	.	.	.	.	.	.	.	.	.	.	.	.	.	.	.	.	.	.	.
12f#/	12aa\	.	.	.	.	.	.	.	.	.	.	.	.	.	.	.	.	.	.	.
12a/J	12dd\J	.	.	.	.	.	.	.	.	.	.	.	.	.	.	.	.	.	.	.
*Xrep	*	*	*	*	*	*	*	*	*	*	*	*	*	*	*	*	*	*	*	*
=18	=18	=18	=18	=18	=18	=18	=18	=18	=18	=18	=18	=18	=18	=18	=18	=18	=18	=18	=18	=18
12d/L	12bb\L	.	.	.	2g/	.	2b/	.	2r	.	.	.	2r	.	.	.	2gg\	.	2bb\	.
12g/	12gg\	.	.	.	.	.	.	.	.	.	.	.	.	.	.	.	.	.	.	.
12b/J	12dd\J	.	.	.	.	.	.	.	.	.	.	.	.	.	.	.	.	.	.	.
*rep	*	*	*	*	*	*	*	*	*	*	*	*	*	*	*	*	*	*	*	*
12d/L	12bb\L	.	.	.	.	.	.	.	.	.	.	.	.	.	.	.	.	.	.	.
12g/	12gg\	.	.	.	.	.	.	.	.	.	.	.	.	.	.	.	.	.	.	.
12b/J	12dd\J	.	.	.	.	.	.	.	.	.	.	.	.	.	.	.	.	.	.	.
*Xrep	*	*	*	*	*	*	*	*	*	*	*	*	*	*	*	*	*	*	*	*
=19	=19	=19	=19	=19	=19	=19	=19	=19	=19	=19	=19	=19	=19	=19	=19	=19	=19	=19	=19	=19
12e/L	12ccc#\L	.	.	.	2e/	.	2g/	.	2r	.	.	.	2r	.	.	.	2ee\	.	2ccc#X\	.
12g/	12aa\	.	.	.	.	.	.	.	.	.	.	.	.	.	.	.	.	.	.	.
12a/J	12gg\J	.	.	.	.	.	.	.	.	.	.	.	.	.	.	.	.	.	.	.
*rep	*	*	*	*	*	*	*	*	*	*	*	*	*	*	*	*	*	*	*	*
12e/L	12ccc#\L	.	.	.	.	.	.	.	.	.	.	.	.	.	.	.	.	.	.	.
12g/	12aa\	.	.	.	.	.	.	.	.	.	.	.	.	.	.	.	.	.	.	.
12a/J	12gg\J	.	.	.	.	.	.	.	.	.	.	.	.	.	.	.	.	.	.	.
*Xrep	*	*	*	*	*	*	*	*	*	*	*	*	*	*	*	*	*	*	*	*
=20	=20	=20	=20	=20	=20	=20	=20	=20	=20	=20	=20	=20	=20	=20	=20	=20	=20	=20	=20	=20
!	!	!	!	!	!	!	!LO:TX:b:t=f	!	!	!	!	!	!	!	!	!	!	!	!	!
12d/L	12ddd\L	.	.	.	2d/	.	2f#/ 2a	.	2r	.	.	.	2r	.	.	.	2ff#\	.	2ddd\	.
12f#/	12aa\	.	.	.	.	.	.	.	.	.	.	.	.	.	.	.	.	.	.	.
12a/J	12ff#\J	.	.	.	.	.	.	.	.	.	.	.	.	.	.	.	.	.	.	.
*rep	*	*	*	*	*	*	*	*	*	*	*	*	*	*	*	*	*	*	*	*
12d/L	12ddd\L	.	.	.	.	.	.	.	.	.	.	.	.	.	.	.	.	.	.	.
12f#/	12aa\	.	.	.	.	.	.	.	.	.	.	.	.	.	.	.	.	.	.	.
12a/J	12ff#\J	.	.	.	.	.	.	.	.	.	.	.	.	.	.	.	.	.	.	.
*Xrep	*	*	*	*	*	*	*	*	*	*	*	*	*	*	*	*	*	*	*	*
=21	=21	=21	=21	=21	=21	=21	=21	=21	=21	=21	=21	=21	=21	=21	=21	=21	=21	=21	=21	=21
12d/L	12cccX\L	.	.	.	2f#/	.	2a/	.	2r	.	0r	.	2r	.	0r	0r	2ryy	.	2aa\	.
12f#/	12aa\	.	.	.	.	.	.	.	.	.	.	.	.	.	.	.	.	.	.	.
12a/J	12ff#\J	.	.	.	.	.	.	.	.	.	.	.	.	.	.	.	.	.	.	.
*rep	*	*	*	*	*	*	*	*	*	*	*	*	*	*	*	*	*	*	*	*
12d/L	12ccc\L	.	.	.	.	.	.	.	.	.	.	.	.	.	.	.	.	.	.	.
12f#/	12aa\	.	.	.	.	.	.	.	.	.	.	.	.	.	.	.	.	.	.	.
12a/J	12ff#\J	.	.	.	.	.	.	.	.	.	.	.	.	.	.	.	.	.	.	.
*Xrep	*	*	*	*	*	*	*	*	*	*	*	*	*	*	*	*	*	*	*	*
=22	=22	=22	=22	=22	=22	=22	=22	=22	=22	=22	=22	=22	=22	=22	=22	=22	=22	=22	=22	=22
!	!	!	!	!	!	!	!	!	!	!	!	!	!	!	!	!	!	!	!LO:TX:a:t=h	!
12d/L	12bb\L	.	.	.	2g/	.	2b/	.	2r	.	.	.	2r	.	.	.	2gg\	.	2bb\	.
12g/	12gg\	.	.	.	.	.	.	.	.	.	.	.	.	.	.	.	.	.	.	.
12b/J	12dd\J	.	.	.	.	.	.	.	.	.	.	.	.	.	.	.	.	.	.	.
*rep	*	*	*	*	*	*	*	*	*	*	*	*	*	*	*	*	*	*	*	*
12d/L	12bb\L	.	.	.	.	.	.	.	.	.	.	.	.	.	.	.	.	.	.	.
12g/	12gg\	.	.	.	.	.	.	.	.	.	.	.	.	.	.	.	.	.	.	.
12b/J	12dd\J	.	.	.	.	.	.	.	.	.	.	.	.	.	.	.	.	.	.	.
*Xrep	*	*	*	*	*	*	*	*	*	*	*	*	*	*	*	*	*	*	*	*
!LO:LB:g=original	!LO:LB:g=original	!	!	!	!	!	!	!	!	!	!	!	!	!	!	!	!	!	!	!
=23	=23	=23	=23	=23	=23	=23	=23	=23	=23	=23	=23	=23	=23	=23	=23	=23	=23	=23	=23	=23
12e/L	12ccc#\L	.	.	.	2e/	.	2g/	.	2r	.	.	.	2r	.	.	.	2ee\	.	2ccc#X\	.
12g/	12aa\	.	.	.	.	.	.	.	.	.	.	.	.	.	.	.	.	.	.	.
12a/J	12gg\J	.	.	.	.	.	.	.	.	.	.	.	.	.	.	.	.	.	.	.
*rep	*	*	*	*	*	*	*	*	*	*	*	*	*	*	*	*	*	*	*	*
12e/L	12ccc#\L	.	.	.	.	.	.	.	.	.	.	.	.	.	.	.	.	.	.	.
12g/	12aa\	.	.	.	.	.	.	.	.	.	.	.	.	.	.	.	.	.	.	.
12a/J	12gg\J	.	.	.	.	.	.	.	.	.	.	.	.	.	.	.	.	.	.	.
*Xrep	*	*	*	*	*	*	*	*	*	*	*	*	*	*	*	*	*	*	*	*
=24	=24	=24	=24	=24	=24	=24	=24	=24	=24	=24	=24	=24	=24	=24	=24	=24	=24	=24	=24	=24
12d/L	8ff#\ 8ddd	.	.	.	4d/	.	4f#/	.	2r	.	.	.	2r	.	.	.	4ff#\	.	4ddd\	.
12f#/	.	.	.	.	.	.	.	.	.	.	.	.	.	.	.	.	.	.	.	.
.	8r	.	.	.	.	.	.	.	.	.	.	.	.	.	.	.	.	.	.	.
12a/J	.	.	.	.	.	.	.	.	.	.	.	.	.	.	.	.	.	.	.	.
*rep	*	*	*	*	*	*	*	*	*	*	*	*	*	*	*	*	*	*	*	*
12d/L	4r	.	.	.	4r	.	4r	.	.	.	.	.	.	.	.	.	4r	.	4r	.
12f#/	.	.	.	.	.	.	.	.	.	.	.	.	.	.	.	.	.	.	.	.
12a/J	.	.	.	.	.	.	.	.	.	.	.	.	.	.	.	.	.	.	.	.
*Xrep	*	*	*	*	*	*	*	*	*	*	*	*	*	*	*	*	*	*	*	*
=25	=25	=25	=25	=25	=25	=25	=25	=25	=25	=25	=25	=25	=25	=25	=25	=25	=25	=25	=25	=25
12e/L	12ccc#\L	.	.	.	2e/	.	2g/	.	2r	.	0r	.	2r	.	0r	0r	2gg\	.	2ccc#X\	.
!	!LO:TX:t=P:problem=wysokość poprawiana	!	!	!	!	!	!	!	!	!	!	!	!	!	!	!	!	!	!	!
12g/	12aa\	.	.	.	.	.	.	.	.	.	.	.	.	.	.	.	.	.	.	.
12a/J	12gg\J	.	.	.	.	.	.	.	.	.	.	.	.	.	.	.	.	.	.	.
*rep	*	*	*	*	*	*	*	*	*	*	*	*	*	*	*	*	*	*	*	*
12e/L	12ccc#\L	.	.	.	.	.	.	.	.	.	.	.	.	.	.	.	.	.	.	.
!	!LO:TX:t=P:problem=wysokość poprawiana	!	!	!	!	!	!	!	!	!	!	!	!	!	!	!	!	!	!	!
12g/	12aa\	.	.	.	.	.	.	.	.	.	.	.	.	.	.	.	.	.	.	.
12a/J	12gg\J	.	.	.	.	.	.	.	.	.	.	.	.	.	.	.	.	.	.	.
*Xrep	*	*	*	*	*	*	*	*	*	*	*	*	*	*	*	*	*	*	*	*
!	!	!	!	!	!LO:LB:g=original	!	!	!	!	!	!	!	!	!	!	!	!	!	!	!
=26	=26	=26	=26	=26	=26	=26	=26	=26	=26	=26	=26	=26	=26	=26	=26	=26	=26	=26	=26	=26
12d/L	8ff#\ 8ddd	.	.	.	4d/	.	4f#/	.	2r	.	.	.	2r	.	.	.	4ff#\	.	4ddd\	.
12f#/	.	.	.	.	.	.	.	.	.	.	.	.	.	.	.	.	.	.	.	.
.	8r	.	.	.	.	.	.	.	.	.	.	.	.	.	.	.	.	.	.	.
12a/J	.	.	.	.	.	.	.	.	.	.	.	.	.	.	.	.	.	.	.	.
*rep	*	*	*	*	*	*	*	*	*	*	*	*	*	*	*	*	*	*	*	*
12d/L	4r	.	.	.	4r	.	4r	.	.	.	.	.	.	.	.	.	4r	.	4r	.
12f#/	.	.	.	.	.	.	.	.	.	.	.	.	.	.	.	.	.	.	.	.
12a/J	.	.	.	.	.	.	.	.	.	.	.	.	.	.	.	.	.	.	.	.
*Xrep	*	*	*	*	*	*	*	*	*	*	*	*	*	*	*	*	*	*	*	*
=27	=27	=27	=27	=27	=27	=27	=27	=27	=27	=27	=27	=27	=27	=27	=27	=27	=27	=27	=27	=27
!	!	!	!	!	!	!	!	!	!	!	!	!	!	!	!	!	!	!	!LO:SIC:s=2ccc#	!
12e/L	12ccc#\L	.	.	.	2e/	.	2g/	.	2r	.	.	.	2r	.	.	.	2gg\	.	2ccc\	.
12g/	12aa\	.	.	.	.	.	.	.	.	.	.	.	.	.	.	.	.	.	.	.
12a/J	12gg\J	.	.	.	.	.	.	.	.	.	.	.	.	.	.	.	.	.	.	.
*rep	*	*	*	*	*	*	*	*	*	*	*	*	*	*	*	*	*	*	*	*
12e/L	12ccc#\L	.	.	.	.	.	.	.	.	.	.	.	.	.	.	.	.	.	.	.
12g/	12aa\	.	.	.	.	.	.	.	.	.	.	.	.	.	.	.	.	.	.	.
12a/J	12gg\J	.	.	.	.	.	.	.	.	.	.	.	.	.	.	.	.	.	.	.
*Xrep	*	*	*	*	*	*	*	*	*	*	*	*	*	*	*	*	*	*	*	*
=28	=28	=28	=28	=28	=28	=28	=28	=28	=28	=28	=28	=28	=28	=28	=28	=28	=28	=28	=28	=28
12d/L	12ddd\L	.	.	.	4d/	.	4f#/	.	2r	.	.	.	2r	.	.	.	4ff#\	.	(4ddd\	.
12f#/	12aa\	.	.	.	.	.	.	.	.	.	.	.	.	.	.	.	.	.	.	.
12a/J	12ff#\J	.	.	.	.	.	.	.	.	.	.	.	.	.	.	.	.	.	.	.
12e/L	12ccc#\L	.	.	.	4e/	.	4g/	.	.	.	.	.	.	.	.	.	4ee\	.	4ccc#X\)	.
12g/	12aa\	.	.	.	.	.	.	.	.	.	.	.	.	.	.	.	.	.	.	.
12a/J	12gg\J	.	.	.	.	.	.	.	.	.	.	.	.	.	.	.	.	.	.	.
=29	=29	=29	=29	=29	=29	=29	=29	=29	=29	=29	=29	=29	=29	=29	=29	=29	=29	=29	=29	=29
12d/L	12ddd\L	.	.	.	4d/	.	4f#/	.	2r	.	2r	.	2r	.	2r	2r	4ff#\	.	(4ddd\	.
12f#/	12aa\	.	.	.	.	.	.	.	.	.	.	.	.	.	.	.	.	.	.	.
12a/J	12ff#\J	.	.	.	.	.	.	.	.	.	.	.	.	.	.	.	.	.	.	.
12e/L	12ccc#\L	.	.	.	4e/	.	4g/	.	.	.	.	.	.	.	.	.	4ee\	.	4ccc#X\)	.
12g/	12aa\	.	.	.	.	.	.	.	.	.	.	.	.	.	.	.	.	.	.	.
12a/J	12gg\J	.	.	.	.	.	.	.	.	.	.	.	.	.	.	.	.	.	.	.
=30	=30	=30	=30	=30	=30	=30	=30	=30	=30	=30	=30	=30	=30	=30	=30	=30	=30	=30	=30	=30
!	!	!	!	!	!LO:TX:t=P:problem=takt skreślony	!	!	!	!	!	!	!	!	!	!	!	!LO:TX:t=P:problem=nadmiarowy takt	!	!LO:TX:t=P:problem=takt skreślony	!
2ryy	2ryy	.	.	.	2ryy	.	2ryy	.	2ryy	.	2ryy	.	2ryy	.	2ryy	2ryy	4ff#\	.	2ryy	.
!	!	!	!	!	!	!	!	!	!	!	!	!	!	!	!	!	!LO:TX:a:t=e	!	!	!
.	.	.	.	.	.	.	.	.	.	.	.	.	.	.	.	.	4ee\	.	.	.
!	!	!	!	!	!	!	!	!	!	!	!	!	!	!	!	!	!LO:LB:g=original	!	!LO:LB:g=original	!
=31	=31	=31	=31	=31	=31	=31	=31	=31	=31	=31	=31	=31	=31	=31	=31	=31	=31	=31	=31	=31
!	!	!	!	!	!	!	!LO:TX:t=P:problem=takt zapisany nad pięciolinią	!	!	!	!	!	!	!	!	!	!	!	!	!
4d/ 4f# 4a	4ff#\ 4aa 4ddd	.	.	.	4d/	.	4f#/	.	2r	.	2r	.	2r	.	2r	2r	4ff#\	.	4ddd|>\	.
!	!LO:TX:b:t=30	!	!	!	!	!	!	!	!	!	!	!	!	!	!	!	!	!	!	!
4d/ 4f# 4a	4ff#\ 4aa 4ddd	.	.	.	4d/	.	4f#/	.	.	.	.	.	.	.	.	.	4ff#\	.	4ddd|>\	.
=32	=32	=32	=32	=32	=32	=32	=32	=32	=32	=32	=32	=32	=32	=32	=32	=32	=32	=32	=32	=32
!	!	!	!	!	!	!	!	!LO:DY:b:t=forte	!	!	!	!	!	!	!	!	!	!	!	!
4d/ 4f# 4a	4ff#\ 4aa 4ddd	.	.	.	4d/	.	4f#/	f	2r	.	4r	.	4r	.	2r	2r	4ff#\	.	4ddd|>\	.
4r	8r	.	.	.	8r	.	8r	.	.	.	8r	.	8r	.	.	.	4r	.	4r	.
!	!	!	!	!LO:DY:a:t=forte	!	!	!	!	!	!	!	!	!	!	!	!	!	!	!	!
.	16b/LL 16dd	Ple-	.	f	16b\LL	.	16dd\LL	.	.	.	(16b\LL	ple-	16dd\LL	ple-	.	.	.	.	.	.
!	!	!	!	!	!LO:TX:a:t=Tutti	!	!	!	!	!	!	!	!	!	!	!	!	!	!	!
.	16a/JJ 16cc	.	.	.	16a\JJ	.	16cc\JJ	.	.	.	16a\JJ)	.	16cc\JJ	.	.	.	.	.	.	.
*clefF4	*	*	*	*	*	*	*	*	*	*	*	*	*	*	*	*	*	*	*	*
!LO:PB:g=original	!LO:PB:g=original	!	!	!	!	!	!	!	!	!	!	!	!	!	!	!	!	!	!	!
=33	=33	=33	=33	=33	=33	=33	=33	=33	=33	=33	=33	=33	=33	=33	=33	=33	=33	=33	=33	=33
*	*	*	*above	*	*	*	*	*	*	*	*	*	*	*	*	*	*	*	*	*
!	!LO:TX:t=P:problem=druga linia tekstu above	!	!	!LO:DY:a:t=forte	!	!	!LO:TX:b:t=dolce	!	!	!	!	!	!	!	!	!	!	!LO:DY:a:t=for	!	!LO:DY:a:t=for
2r	8g/ 8b	-ni	san-	f	8g\L	.	8b\L	.	2r	.	8g\	-ni	8b\L	-ni	2g\	2b\	8gg|>\L	f	8bb|>\L	f
.	8g/ 8b	sunt	-na	.	8g\	.	8b\	.	.	.	8g\	sunt	8b\J	sunt	.	.	8gg|>\	.	8bb|>\	.
!	!	!	!	!	!	!	!	!	!	!	!LO:SIC:l:s=cae	!	!LO:SIC:l:s=cae	!	!	!	!	!	!	!
.	8cc/L 8ee	Ce-	in	.	8cc\	.	8ee\	.	.	.	(8cc\L	Ce-	8ee\L	Ce-	.	.	(8ccc\	.	(8eee\	.
.	8b/J 8dd	.	ex-	.	8b\J	.	8dd\J	.	.	.	8b\J)	.	8dd\J	.	.	.	8bb\J)	.	8ddd\J)	.
=34	=34	=34	=34	=34	=34	=34	=34	=34	=34	=34	=34	=34	=34	=34	=34	=34	=34	=34	=34	=34
8r	4a/ 4cc	-li	-celsis	.	4a/	.	4cc\	.	2r	.	4a\	-li	4cc\	-li	4a\	4cc\	4aa\	.	4ddd\	.
!LO:TX:t=P:problem=mixed beam	!	!	!	!	!	!	!	!	!	!	!	!	!	!	!	!	!	!	!	!
8d\L	.	.	.	.	.	.	.	.	.	.	.	.	.	.	.	.	.	.	.	.
8D/J	8r	.	.	.	8r	.	8r	.	.	.	8r	.	8r	.	4r	4r	4r	.	4r	.
8r	16a/LL 16cc	Ple-	O-	.	16a/LL	.	16cc\LL	.	.	.	(16a\LL	ple-	(16cc\LL	ple-	.	.	.	.	.	.
.	16g/JJ 16b	.	.	.	16g/JJ	.	16b\JJ	.	.	.	16g\JJ)	.	16b\JJ)	.	.	.	.	.	.	.
!	!	!	!	!	!	!	!	!	!	!	!LO:LB:g=original	!	!	!	!LO:LB:g=original	!LO:LB:g=original	!	!	!	!
=35	=35	=35	=35	=35	=35	=35	=35	=35	=35	=35	=35	=35	=35	=35	=35	=35	=35	=35	=35	=35
2r	8f#/ 8a	-ni	-san-	.	8f#/L	.	8a/L	.	2r	.	8f#|>\	-ni	8a\	-ni	2d/	2a\	8ff#|>\L	.	8aa|>\L	.
.	8f#/ 8a	sunt	-na	.	8f#/	.	8a/	.	.	.	8f#|>\	sunt	8a\	sunt	.	.	8ff#|>\	.	8aa|>\	.
!	!	!	!	!	!	!	!	!	!	!	!LO:SIC:l:s=cae	!	!LO:SIC:l:s=cae	!	!	!	!	!	!	!
.	8b/L 8dd	Ce-	in	.	8b/	.	8dd/	.	.	.	(8b\L	Ce-	8cc\	Ce-	.	.	(8bb\	.	(8ddd\	.
.	8a/J 8cc	.	ex-	.	8a/J	.	8cc/J	.	.	.	8a\J)	.	8b\	.	.	.	8aa\J)	.	8ccc\J)	.
!	!	!	!	!	!	!	!LO:LB:g=original	!	!	!	!	!	!	!	!	!	!	!	!	!
=36	=36	=36	=36	=36	=36	=36	=36	=36	=36	=36	=36	=36	=36	=36	=36	=36	=36	=36	=36	=36
8r	4g/ 4b	-li	-celsis	.	4g/	.	4b\	.	4r	.	4g\	-li	4b\	-li	4g\	4b\	4gg\	.	4bb\	.
!LO:TX:t=P:problem=mixed beam	!	!	!	!	!	!	!	!	!	!	!	!	!	!	!	!	!	!	!	!
8G\L	.	.	.	.	.	.	.	.	.	.	.	.	.	.	.	.	.	.	.	.
8GG/J	8r	.	.	.	8r	.	8r	.	8r	.	8r	.	8r	.	4r	4r	8r	.	8r	.
8r	8b/ 8dd	et_ter-	o-	.	8b/	.	8dd\	.	8D\	glo-	8b\	et	8dd\	et	.	.	8bb\	.	8ddd\	.
=37	=37	=37	=37	=37	=37	=37	=37	=37	=37	=37	=37	=37	=37	=37	=37	=37	=37	=37	=37	=37
8r	4cc/ 4ee	-ra	-sanna	.	8cc\L	.	8ee\L	.	8E\	-ri-	8cc\	ter-	8ee\	ter-	8r	8r	2ccc\	.	2eee\	.
!LO:TX:t=P:problem=mixed beam	!	!	!	!	!	!	!	!	!	!	!	!	!	!	!	!	!	!	!	!
8c\L	.	.	.	.	8cc\J	.	8ee\J	.	8E\	-a	8cc\	-ra	8ee\	-ra	8G/L	8g\L	.	.	.	.
8C/J	8r	.	.	.	8r	.	8r	.	8r	.	8r	.	8r	.	8G/J	8g\J	.	.	.	.
8r	8cc/ 8ee	glo	o-	.	8cc/	.	8ee\	.	8E\	glo-	8cc\	glo-	8ee\	et	8r	8r	.	.	.	.
!	!	!	!	!	!	!	!	!	!LO:LB:g=original	!	!	!	!LO:LB:g=original	!	!	!	!	!	!	!
=38	=38	=38	=38	=38	=38	=38	=38	=38	=38	=38	=38	=38	=38	=38	=38	=38	=38	=38	=38	=38
*	*^	*	*	*	*	*	*	*	*	*	*	*	*	*	*	*	*	*	*	*
8r	4a/ 4cc 4ff#	4ryy	.	-San-	.	8a/L	.	8ff#\L	.	8F#\	-ri-	8cc\	-ri-	8ff#\	ter-	8r	8r	2aa\	.	2fff#\	.
!LO:TX:t=P:problem=mixed beam	!	!	!	!	!	!	!	!	!	!	!	!	!	!	!	!	!	!	!	!	!
8d\L	.	.	.	.	.	8a/J	.	8ff#\J	.	8F#\	-a	8cc\	-a	8ff#\	-ra	8d/L	8a\L	.	.	.	.
8D/	8r	8ryy	.	.	.	8r	.	8r	.	8r	.	8r	.	8r	.	8d/J	8a\J	.	.	.	.
8d\J	8cc/ 8ff#	8a\	-ria	-na	.	8a/	.	8ff#\	.	8F#\	glo-	8cc\	glo-	8ff#\	glo-	8r	8r	.	.	.	.
!	!	!	!	!	!	!LO:LB:g=original	!	!	!	!	!	!	!	!	!	!	!	!	!	!	!
=39	=39	=39	=39	=39	=39	=39	=39	=39	=39	=39	=39	=39	=39	=39	=39	=39	=39	=39	=39	=39	=39
4G\	4gg/	4b\	tu-	o-	.	4b\	.	4gg\	.	8G\	-ri-	8b\	-ri-	8gg\	-ri-	4g\	4b\	4bb\	.	4ggg\	.
.	.	.	.	.	.	.	.	.	.	8G\	-a	8b\	-a	8gg\	-a	.	.	.	.	.	.
4D/	4aa/	4cc\	.	-San-	.	4cc\	.	4aa\	.	4A\	tu-	4dd\	tu-	4aa\	tu-	4d\	4a\	4ccc\	.	4aaa\	.
=40	=40	=40	=40	=40	=40	=40	=40	=40	=40	=40	=40	=40	=40	=40	=40	=40	=40	=40	=40	=40	=40
!	!LO:TX:b:t=39	!	!	!	!	!LO:TX:a:t=39:color=red	!	!LO:TX:a:i:t=39 Taktow	!	!	!	!	!	!	!	!	!	!	!	!	!
4G\	4gg/	4b\	-a	-na.	.	4b/	.	4gg\	.	4G\	-a.	4b\	-a.	4gg\	-a.	4G/	4g\	4bb\	.	4ggg\	.
!	!	!	!	!	!	!	!	!	!	!	!	!LO:TX:b:i:t=Verte Benedictus ut Canto Primo duplicent(ur)	!	!	!	!LO:TX:b:t=39	!LO:TX:b:t=39	!LO:TX:b:t=39	!	!LO:TX:b:t=39	!
4r	4r	4r	.	.	.	4r	.	4r	.	4r	.	4r	.	4r	.	4r	4r	4r	.	4r	.
*	*v	*v	*	*	*	*	*	*	*	*	*	*	*	*	*	*	*	*	*	*	*
==	==	==	==	==	==	==	==	==	==	==	==	==	==	==	==	==	==	==	==	==
*-	*-	*-	*-	*-	*-	*-	*-	*-	*-	*-	*-	*-	*-	*-	*-	*-	*-	*-	*-	*-
!!!system-decoration: [(s1,s2)][(s3,s4)][(s5,s6,s7)][(s8,s9)]{(s10,s11)}
!!!RDF**kern: < = below
!!!RDF**kern: > = above
!!!RDF**kern: | = vertical stroke
!!!AIN: 1 bass 2 cor 2 flt 1 organ 2 soprn 2 violn
!!!ENC: Kamil Watkowski
!!!END: 2020-09-09
!!!ENC: Marta Chmielewska
!!!END: 2022-01-27
